styles/1/Numix/48/places/red-folder-saved-search.svg

<?xml version="1.0" encoding="UTF-8" standalone="no"?>
<!-- Created with Inkscape (http://www.inkscape.org/) -->

<svg
   xmlns:dc="http://purl.org/dc/elements/1.1/"
   xmlns:cc="http://creativecommons.org/ns#"
   xmlns:rdf="http://www.w3.org/1999/02/22-rdf-syntax-ns#"
   xmlns:svg="http://www.w3.org/2000/svg"
   xmlns="http://www.w3.org/2000/svg"
   xmlns:sodipodi="http://sodipodi.sourceforge.net/DTD/sodipodi-0.dtd"
   xmlns:inkscape="http://www.inkscape.org/namespaces/inkscape"
   width="48"
   height="48"
   id="svg2"
   version="1.1"
   inkscape:version="0.91 r"
   sodipodi:docname="red-folder-saved-search.svg">
  <defs
     id="defs4" />
  <sodipodi:namedview
     id="base"
     pagecolor="#ffffff"
     bordercolor="#666666"
     borderopacity="1.0"
     inkscape:pageopacity="0.0"
     inkscape:pageshadow="2"
     inkscape:zoom="17.627784"
     inkscape:cx="31.120642"
     inkscape:cy="18.197447"
     inkscape:document-units="px"
     inkscape:current-layer="layer1"
     showgrid="true"
     inkscape:window-width="1280"
     inkscape:window-height="998"
     inkscape:window-x="0"
     inkscape:window-y="0"
     inkscape:window-maximized="1">
    <inkscape:grid
       type="xygrid"
       id="grid2990"
       empspacing="5"
       visible="true"
       enabled="true"
       snapvisiblegridlinesonly="true" />
  </sodipodi:namedview>
  <metadata
     id="metadata7">
    <rdf:RDF>
      <cc:Work
         rdf:about="">
        <dc:format>image/svg+xml</dc:format>
        <dc:type
           rdf:resource="http://purl.org/dc/dcmitype/StillImage" />
        <dc:title />
      </cc:Work>
    </rdf:RDF>
  </metadata>
  <g
     inkscape:label="Body"
     inkscape:groupmode="layer"
     id="layer1"
     transform="translate(0,-1004.3622)">
    <path
       style="font-size:medium;font-style:normal;font-variant:normal;font-weight:normal;font-stretch:normal;text-indent:0;text-align:start;text-decoration:none;line-height:normal;letter-spacing:normal;word-spacing:normal;text-transform:none;direction:ltr;block-progression:tb;writing-mode:lr-tb;text-anchor:start;baseline-shift:baseline;color:#000000;fill:#ef5350;fill-opacity:1;fill-rule:nonzero;stroke:none;stroke-width:3.00000024;marker:none;visibility:visible;display:inline;overflow:visible;enable-background:accumulate;font-family:Sans;-inkscape-font-specification:Sans"
       d="M 5.1875 8 C 4.511132 8.1439 3.984919 8.8086 4 9.5 L 4 37.5 C 4.000079 38.2853 4.714623 38.9999 5.5 39 L 42.5 39 C 43.285377 38.9999 43.999921 38.2853 44 37.5 L 44 12.53125 C 43.999921 11.74585 43.285377 11.03135 42.5 11.03125 L 28 11.03125 L 28 9.5 C 27.999921 8.7146 27.285377 8 26.5 8 L 5.5 8 C 5.396212 7.989 5.291288 7.989 5.1875 8 z M 26.46875 17 C 27.885248 16.996313 29.292426 17.54205 30.375 18.625 C 32.540153 20.7909 32.540156 24.30305 30.375 26.46875 C 28.533936 28.31045 25.72683 28.57165 23.59375 27.28125 L 18.25 32.625 C 17.751634 33.1236 16.967116 33.1236 16.46875 32.625 L 16.375 32.53125 C 15.876635 32.03275 15.876635 31.2485 16.375 30.75 L 21.71875 25.40625 C 20.43175 23.27545 20.690185 20.4666 22.53125 18.625 C 23.613827 17.5408 25.052252 17.003687 26.46875 17 z M 26.46875 18.71875 C 25.492351 18.722425 24.494593 19.0988 23.75 19.84375 C 22.274069 21.31985 22.26911 23.6951 23.71875 25.1875 C 23.7318 25.2015 23.73668 25.20275 23.75 25.21875 L 23.8125 25.28125 C 25.304792 26.72945 27.680989 26.7258 29.15625 25.25 C 30.645437 23.7605 30.645452 21.33355 29.15625 19.84375 C 28.411649 19.1001 27.445149 18.715075 26.46875 18.71875 z "
       transform="translate(0,1004.3622)"
       id="path3912" />
  </g>
</svg>

<!-- Created with Inkscape (http://www.inkscape.org/) -->
<svg xmlns="http://www.w3.org/2000/svg" viewBox="0 0 48 48">
 <g transform="translate(0,-1004.3622)">
  <path d="m 5.188 8 c -0.676 0.144 -1.203 0.809 -1.188 1.5 l 0 28 c 0 0.785 0.715 1.5 1.5 1.5 l 37 0 c 0.785 0 1.5 -0.715 1.5 -1.5 l 0 -24.969 c 0 -0.785 -0.715 -1.5 -1.5 -1.5 l -14.5 0 l 0 -1.531 c 0 -0.785 -0.715 -1.5 -1.5 -1.5 l -21 0 c -0.104 -0.011 -0.209 -0.011 -0.313 0 z m 21.281 9 c 1.416 -0.004 2.824 0.542 3.906 1.625 c 2.165 2.166 2.165 5.678 0 7.844 c -1.841 1.842 -4.648 2.103 -6.781 0.813 l -5.344 5.344 c -0.498 0.499 -1.283 0.499 -1.781 0 l -0.094 -0.094 c -0.498 -0.498 -0.498 -1.283 0 -1.781 l 5.344 -5.344 c -1.287 -2.131 -1.029 -4.94 0.813 -6.781 c 1.083 -1.084 2.521 -1.621 3.938 -1.625 z m 0 1.719 c -0.976 0.004 -1.974 0.38 -2.719 1.125 c -1.476 1.476 -1.481 3.851 -0.031 5.344 c 0.013 0.014 0.018 0.015 0.031 0.031 l 0.063 0.063 c 1.492 1.448 3.868 1.445 5.344 -0.031 c 1.489 -1.489 1.489 -3.916 0 -5.406 c -0.745 -0.744 -1.711 -1.129 -2.688 -1.125 z" transform="translate(0,1004.3622)" style="visibility:visible;fill:#ef5350;fill-opacity:1;stroke:none;display:inline;color:#000;fill-rule:nonzero"/>
 </g>
</svg>
